svgs/sharp-regular/binoculars.svg

<svg xmlns="http://www.w3.org/2000/svg" viewBox="0 0 512 512"><!--! Font Awesome Pro 6.6.0 by @fontawesome - https://fontawesome.com License - https://fontawesome.com/license (Commercial License) Copyright 2024 Fonticons, Inc. --><path d="M96 32l96 0 0 48L96 80l0-48zM68 112l20 0 112 0 24 0 0 24 0 24 64 0 0-24 0-24 24 0 112 0 20 0 3.6 19.7 15.2 83.7 45.8 76.2 3.4 5.7 0 6.6 0 152 0 24-24 0-176 0-24 0 0-24 0-168-64 0 0 168 0 24-24 0L24 480 0 480l0-24L0 304l0-6.6 3.4-5.7 45.7-76.2 15.2-83.7L68 112zM108 160L95.6 228.3l-.8 4.3-2.3 3.8L48 310.6 48 432l128 0 0-272-68 0zM404 160l-68 0 0 272 128 0 0-121.4-44.6-74.3-2.2-3.8-.8-4.3L404 160zM416 32l0 48-96 0 0-48 96 0z"/></svg>

<svg xmlns="http://www.w3.org/2000/svg" viewBox="0 0 512 512"><!--! Font Awesome Pro 6.4.0 by @fontawesome - https://fontawesome.com License - https://fontawesome.com/license (Commercial License) Copyright 2023 Fonticons, Inc. --><path d="M96 32h96V80H96V32zM68 112H88 200h24v24 24h64V136 112h24H424h20l3.6 19.7 15.2 83.7 45.8 76.2 3.4 5.7V304 456v24H488 312 288V456 288H224V456v24H200 24 0V456 304v-6.6l3.4-5.7 45.7-76.2 15.2-83.7L68 112zM108 160L95.6 228.3l-.8 4.3-2.3 3.8L48 310.6V432H176V160H108zM404 160H336V432H464V310.6l-44.6-74.3-2.2-3.8-.8-4.3L404 160zM416 32V80H320V32h96z"/></svg>
